X:13114
T:Pigeon on the Gate, The
M:C|
L:1/8
R:reel
Z:There are some variations of the "standard" tune.
K:Edor
"First variation"
ed|BE~E2 Bdcd|BE~E2 dBAF|D2 (3FED ADFE|DEFA BAFA|
BE~E2 BEdE|BE~E2 dBAF|DEFA dfec|dBAF E2:|
|:(3FGA|Beed efed|(3Bcd ef gedB|Addc d2dB|A2FE DEFA|
Beed efed|(3Bcd ef g2fg|(3agf ge faec|dBAF E2:|
"Second variation"
|:ed|BE~E2 BdcA|BE~E2 BAFE|D2BD ADFD|FGAd BAFA|
BE~E2 BdcA|BE~E2 BAFE|D2FA dfec|dBAF E2:|
|:FA|~B3d efed|(3Bcd ef gfed|Bddc d2dB|AF~F2 DEFA|
~e3d efed|(3Bcd ef g2fg|afge fdec|dBAF E2:|


